X: 114
M:C|
L:1/8
K:A
u((3EFG)|\
|:vE2(GB) BEGB | A2(cA) eAce | B2(df) fBdf | e2(ge) befg |
agae faec | defg a2(ga) | bgeg agaf | ecBc A2 :|


